X: 26875
T: Minerva's Thimble
R: waltz
M: 3/4
K: Gmajor
d2|:B2 G2 G2|A2 B2 B2|cB cd ec|B2 A2 d2:|
e2 d2 d2|dc BG Bd|AB cd ed|fe de cA|
B2 G2 G2|A2 B2 B2|cB ce dc|B2 G2||

